svg/300/rounded/stack_off-fill.svg

<svg xmlns="http://www.w3.org/2000/svg" width="48" height="48" viewBox="0 -960 960 960"><path d="M859.999-192.925 432.925-619.999h369.381q23.596 0 40.645 17.048 17.048 17.049 17.048 40.645v369.381Zm-621.69-621.69-45.384-45.384h369.381q23.596 0 40.645 17.048 17.048 17.049 17.048 40.645v109.23h-45.384v-109.23q0-5.001-3.654-8.655-3.654-3.654-8.655-3.654H238.309Zm159.385 714.614q-24.346 0-41.02-16.673-16.673-16.674-16.673-41.02v-397.075L145.385-749.386v364.001h121.539v45.384h-109.23q-24.346 0-41.02-16.673-16.673-16.674-16.673-41.02v-397.075L83.636-811.33q-6.942-6.773-6.826-16.183.115-9.409 7.245-16.486 7.129-7.077 16.307-7.077 9.178 0 16.254 7.077l727.383 727.998q6.692 6.692 6.884 15.807.193 9.115-6.937 16.192-7.129 7.077-16.307 7.077-9.178 0-16.328-7.077L794.769-100H397.694Z"/></svg>

<svg xmlns="http://www.w3.org/2000/svg" width="48" height="48" viewBox="0 -960 960 960"><path d="M860-192.93 432.93-620h369.38q23.59 0 40.64 17.05T860-562.31v369.38ZM238.31-814.61 192.93-860h369.38q23.59 0 40.64 17.05T620-802.31v109.23h-45.39v-109.23q0-5-3.65-8.65-3.65-3.65-8.65-3.65h-324ZM397.69-100q-24.34 0-41.02-16.67Q340-133.35 340-157.69v-397.08L145.39-749.39v364h121.53V-340H157.69q-24.34 0-41.02-16.67Q100-373.35 100-397.69v-397.08l-16.36-16.56q-6.95-6.77-6.83-16.18.12-9.41 7.24-16.49 7.13-7.08 16.31-7.08t16.26 7.08L844-116q6.69 6.69 6.88 15.81.2 9.11-6.93 16.19-7.13 7.07-16.31 7.07T811.31-84l-16.54-16H397.69Z"/></svg>
